svgs/solid/sensor-fire.svg

<svg xmlns="http://www.w3.org/2000/svg" viewBox="0 0 640 512"><!--! Font Awesome Pro 6.0.0-alpha3 by @fontawesome - https://fontawesome.com License - https://fontawesome.com/license (Commercial License) --><path d="M288.9 315.4c0-60.1 53.75-153.4 130.6-224.5c5.875-5.5 13.75-8.625 21.88-8.625c2.25 0 4.375 .75 6.625 1.25C441.1 53.5 415.6 32 385.1 32H64.05C28.68 32 0 60.62 0 96v320c0 35.38 28.68 64 64.05 64h312.5C321.6 443.2 288.8 381.5 288.9 315.4zM96.19 272c0 8.875-7.062 16-15.94 16c-8.875 0-16.12-7.125-16.12-16v-160c0-8.875 7.25-16 16.12-16c8.875 0 16 7.125 16 16L96.19 272zM160.5 272c0 8.875-7.25 16-16.12 16c-8.875 0-16-7.125-16-16v-160c0-8.875 7.125-16 16-16C153.2 96 160.5 103.1 160.5 112V272zM224.6 272c0 8.875-7.125 16-16 16C199.8 288 192.5 280.9 192.5 272v-160c0-8.875 7.25-16 16.12-16c8.875 0 16 7.125 16 16V272zM551.1 150.9C536.8 164.2 523.4 178.5 511 193.8C489.1 165 466.1 138.4 440 114.2C369.8 179.4 320 264.2 320 315.4C320 406.4 391.6 480 480 480s160-73.63 160-164.6C640 277.4 602.9 198.9 551.1 150.9zM540 397.9C523.1 409.8 502.9 416 482.1 416C428 416 384 380.2 384 322.1C384 293.1 402.2 267.6 438.6 224c5.125 6 74.13 94 74.13 94l44-50.13c3.125 5.125 5.875 10.13 8.375 15C585.6 322 577 372 540 397.9z"/></svg>

<svg xmlns="http://www.w3.org/2000/svg" viewBox="0 0 640 512"><!-- Font Awesome Pro 6.0.0-alpha2 by @fontawesome - https://fontawesome.com License - https://fontawesome.com/license (Commercial License) --><path d="M288.875 315.375C288.875 254.375 342.625 162 419.5 90.875C425.375 85.375 433.25 82.25 441.375 82.25C443.625 82.25 445.75 83 448 83.5C442 53.5 415.625 32 385.125 32H64.125C28.75 32 0 60.625 0 96V416C0 451.375 28.75 480 64.125 480H376.5C321.625 443.25 288.75 381.5 288.875 315.375ZM96.25 272C96.25 280.875 89.125 288 80.25 288C71.375 288 64.125 280.875 64.125 272V112C64.125 103.125 71.375 96 80.25 96C89.125 96 96.25 103.125 96.25 112V272ZM160.5 272C160.5 280.875 153.25 288 144.375 288C135.5 288 128.375 280.875 128.375 272V112C128.375 103.125 135.5 96 144.375 96C153.25 96 160.5 103.125 160.5 112V272ZM224.625 272C224.625 280.875 217.5 288 208.625 288C199.75 288 192.5 280.875 192.5 272V112C192.5 103.125 199.75 96 208.625 96C217.5 96 224.625 103.125 224.625 112V272ZM551.125 150.875C536.75 164.25 523.375 178.5 511 193.75C490 165 466.125 138.375 440 114.25C369.75 179.375 320 264.25 320 315.375C320 406.375 391.625 480 480 480S640 406.375 640 315.375C640 277.375 602.875 198.875 551.125 150.875ZM540 397.875C523.125 409.75 502.875 416 482.125 416C428 416 384 380.25 384 322.125C384 293.125 402.25 267.625 438.625 224C443.75 230 512.75 318 512.75 318L556.75 267.875C559.875 273 562.625 278 565.125 282.875C585.625 322 577 372 540 397.875Z"/></svg>
